!!! OTL: Berkowitz521
!!! Chapter: 1
!!! Section: IV
!!! Page: 130
!!! Mode: 
!!! Encoder: DJB
**kern
*staff1
*I"Piano
=1-
*clefG2
*k[f#c#g#d#]
*E:
*M6/8
4.r
8B/L
8e/
8f#/J
=2
4.g#/
[4.b\
=3
8b\L]
8cc#\
8dd#\J
8ff#\L
8ee\
8cc#\J
=4
4.ccn\
4.b\
=5
8a#/L
8b/
8b#/J
8dd#\L
8cc#\
8g#\J
=6
4.b\
4.a/
=7
8B/L
8f#/
8g#/J
8a/L
8e#/
8f#/J
=8
4.f##/
4.g#/
=9
8B/L
8e/
8f#/J
8g#/L
8b/
8cc#/J
=10
!!linebreak:original
4.dd#\
4.ee\
=11
8ffn\L
8.cc#\
16cc#\Jk
8cc#\L
8b-\
8a\J
=12
4f#/
8a/
4.g#/
=13
8dn/L
8g#/
8b-/J
8.dd#\L
16cc#\K
8b-\J
=14
8c#/L
8f#/
8a/J
8cc#\L
8.b-\
16a\Jk
=15
8a/L
8f#/
8d#/J
[4.B/
=16
8B/L]
8c#/
8d#/J
4.e/
==
*-
